X:6905
T:Young Collins
M:4/4
O:England
R:Morris
Z:Richard Robinson 
%%TUNEURL: http://www.leeds.ac.uk/music/Info/RRTuneBk/gettune/000009e1.html
%%ID:000009e1
K:A
ABcd e2e2|d2f2 B2cd|e2e2 f2ed|c2B2 A4::\
F2E2 FGA2|B2B2A2B2|
c3B cde2|f2f2 e2E2|\
ABcd e2e2|d2f2 B2cd|e2e2 f2ed|c2B2 A4:|
